icon/ir/quote-message.svg

<svg stroke-width="1.5" viewBox="0 0 24 24" fill="none" xmlns="http://www.w3.org/2000/svg" height="1em" width="1em">
  <path d="M3 20.2895V5C3 3.89543 3.89543 3 5 3H19C20.1046 3 21 3.89543 21 5V15C21 16.1046 20.1046 17 19 17H7.96125C7.35368 17 6.77906 17.2762 6.39951 17.7506L4.06852 20.6643C3.71421 21.1072 3 20.8567 3 20.2895Z" stroke="currentColor"/>
  <path d="M10.5 10H8.5C7.94772 10 7.5 9.55228 7.5 9V8C7.5 7.44772 7.94772 7 8.5 7H9.5C10.0523 7 10.5 7.44772 10.5 8V10ZM10.5 10C10.5 11 9.5 12 8.5 13" stroke="currentColor" stroke-linecap="round"/>
  <path d="M16.5 10H14.5C13.9477 10 13.5 9.55228 13.5 9V8C13.5 7.44772 13.9477 7 14.5 7H15.5C16.0523 7 16.5 7.44772 16.5 8V10ZM16.5 10C16.5 11 15.5 12 14.5 13" stroke="currentColor" stroke-linecap="round"/>
</svg>

<svg width="24" height="24" stroke-width="1.5" fill="none" xmlns="http://www.w3.org/2000/svg"><path d="M3 20.29V5a2 2 0 0 1 2-2h14a2 2 0 0 1 2 2v10a2 2 0 0 1-2 2H7.961a2 2 0 0 0-1.561.75l-2.331 2.914A.6.6 0 0 1 3 20.29Z" stroke="currentColor"/><path d="M10.5 10h-2a1 1 0 0 1-1-1V8a1 1 0 0 1 1-1h1a1 1 0 0 1 1 1v2Zm0 0c0 1-1 2-2 3M16.5 10h-2a1 1 0 0 1-1-1V8a1 1 0 0 1 1-1h1a1 1 0 0 1 1 1v2Zm0 0c0 1-1 2-2 3" stroke="currentColor" stroke-linecap="round"/></svg>
